X:1
T:The Bear Went Over the Mountain
M:6/8
L:1/8
K:G
 B| B2 B BAB| c3 B2 B| A2 A AGA| B3 G2 A| B2 B BAB| c3 e2 e|d-e dc-B A|\
 G3- G2||
